;FLAVOR:Marlin
;TIME:4877
;Filament used: 4.81559m
;Layer height: 0.25
;MINX:77.191
;MINY:68.536
;MINZ:0.2
;MAXX:122.77
;MAXY:135.565
;MAXZ:27.95
;Generated with Cura_SteamEngine main
M140 S110
M105
M190 S110
M104 S245
M105
M109 S245
M82 ;absolute extrusion mode
; Ender 3 Custom Start G-code
G92 E0 ; Reset Extruder
G28 ; Home all axes
G1 Z2.0 F3000 ; Move Z Axis up little to prevent scratching of Heat Bed
G1 X0.1 Y20 Z0.3 F5000.0 ; Move to start position
G1 X0.1 Y200.0 Z0.3 F1500.0 E15 ; Draw the first line
G1 X0.4 Y200.0 Z0.3 F5000.0 ; Move to side a little
G1 X0.4 Y20 Z0.3 F1500.0 E30 ; Draw the second line
G92 E0 ; Reset Extruder
G1 Z2.0 F3000 ; Move Z Axis up little to prevent scratching of Heat Bed
G1 X5 Y20 Z0.3 F5000.0 ; Move over to prevent blob squish
G92 E0
G92 E0
G1 F2700 E-5
;LAYER_COUNT:112
;LAYER:0
M107
G0 F6000 X80.404 Y71.932 Z0.2
G0 X77.191 Y80.298
;TYPE:SKIRT
G1 F2700 E0
G1 F1200 X77.201 Y79.627 E0.0279
G1 X77.255 Y78.68 E0.06734
G1 X77.389 Y77.741 E0.10677
G1 X77.601 Y76.817 E0.14618
G1 X77.891 Y75.914 E0.18561
G1 X78.255 Y75.038 E0.22505
G1 X78.692 Y74.196 E0.26449
G1 X79.198 Y73.394 E0.30392
G1 X79.77 Y72.638 E0.34333
G1 X80.404 Y71.932 E0.38278
G1 X81.095 Y71.282 E0.42222
G1 X81.838 Y70.693 E0.46164
G1 X82.628 Y70.168 E0.50108
G1 X83.46 Y69.712 E0.54052
G1 X84.327 Y69.328 E0.57995
G1 X85.223 Y69.018 E0.61936
G1 X86.143 Y68.784 E0.65883
G1 X87.078 Y68.629 E0.69824
G1 X88.131 Y68.55 E0.74214
G1 X88.77 Y68.536 E0.76871
G1 X108.916 Y68.543 E1.60628
G1 X109.581 Y68.552 E1.63393
G1 X110.528 Y68.605 E1.67337
G1 X111.467 Y68.737 E1.71279
G1 X112.392 Y68.948 E1.75223
G1 X113.296 Y69.236 E1.79168
G1 X114.172 Y69.6 E1.83112
G1 X115.014 Y70.035 E1.87052
G1 X115.817 Y70.541 E1.90998
G1 X116.574 Y71.112 E1.9494
G1 X117.281 Y71.744 E1.98883
G1 X117.932 Y72.434 E2.02827
G1 X118.522 Y73.177 E2.06771
G1 X119.048 Y73.966 E2.10714
G1 X119.505 Y74.797 E2.14657
G1 X119.891 Y75.664 E2.18602
G1 X120.202 Y76.56 E2.22545
G1 X120.437 Y77.479 E2.26489
G1 X120.593 Y78.414 E2.3043
G1 X120.673 Y79.432 E2.34675
G1 X120.69 Y80.136 E2.37603
G1 X120.69 Y83.204 E2.50358
G1 X120.727 Y85.802 E2.61161
G1 X120.833 Y88.307 E2.71585
G1 X121.012 Y90.828 E2.82092
G1 X121.257 Y93.306 E2.92445
G1 X121.575 Y95.789 E3.02852
G1 X121.967 Y98.284 E3.13352
G1 X122.577 Y101.51 E3.27002
G1 X122.714 Y102.448 E3.30943
G1 X122.77 Y103.867 E3.36847
G1 X122.758 Y104.37 E3.38939
G1 X122.695 Y105.317 E3.42885
G1 X122.553 Y106.254 E3.46825
G1 X122.346 Y107.129 E3.50563
G1 X122.026 Y108.271 E3.55494
G1 X121.836 Y108.915 E3.58286
G1 X121.2 Y111.323 E3.6864
G1 X120.626 Y113.781 E3.79134
G1 X120.123 Y116.247 E3.89598
G1 X119.696 Y118.686 E3.99892
G1 X119.33 Y121.193 E4.10426
G1 X119.033 Y123.733 E4.21058
G1 X118.867 Y125.41 E4.28064
G1 X118.734 Y126.349 E4.32007
G1 X118.522 Y127.274 E4.35952
G1 X118.234 Y128.177 E4.39893
G1 X117.87 Y129.053 E4.43837
G1 X117.434 Y129.895 E4.47779
G1 X116.928 Y130.698 E4.51725
G1 X116.357 Y131.455 E4.55667
G1 X115.724 Y132.161 E4.59609
G1 X115.033 Y132.812 E4.63556
G1 X114.29 Y133.401 E4.67498
G1 X113.501 Y133.927 E4.71441
G1 X112.67 Y134.384 E4.75384
G1 X111.803 Y134.769 E4.79327
G1 X110.907 Y135.08 E4.83271
G1 X109.988 Y135.314 E4.87213
G1 X109.052 Y135.47 E4.91158
G1 X108 Y135.55 E4.95545
G1 X107.329 Y135.565 E4.98335
G1 X94.767 Y135.564 E5.50562
G1 X94.069 Y135.555 E5.53464
G1 X93.122 Y135.503 E5.57407
G1 X92.183 Y135.371 E5.61349
G1 X91.258 Y135.161 E5.65293
G1 X90.354 Y134.873 E5.69238
G1 X89.478 Y134.51 E5.7318
G1 X88.635 Y134.075 E5.77124
G1 X87.832 Y133.57 E5.81068
G1 X87.074 Y133 E5.85011
G1 X86.367 Y132.368 E5.88953
G1 X85.716 Y131.678 E5.92897
G1 X85.125 Y130.936 E5.96841
G1 X84.599 Y130.147 E6.00783
G1 X84.141 Y129.316 E6.04728
G1 X83.755 Y128.45 E6.0867
G1 X83.443 Y127.554 E6.12615
G1 X83.208 Y126.635 E6.16558
G1 X83.037 Y125.583 E6.20989
G1 X82.894 Y124.327 E6.26245
G1 X82.562 Y121.752 E6.37039
G1 X82.167 Y119.249 E6.47574
G1 X81.706 Y116.781 E6.58012
G1 X81.186 Y114.367 E6.68279
G1 X80.579 Y111.904 E6.78825
G1 X79.911 Y109.488 E6.89247
G1 X79.173 Y107.082 E6.9971
G1 X78.342 Y104.627 E7.10485
G1 X77.852 Y103.251 E7.16558
G1 X77.571 Y102.344 E7.20506
G1 X77.368 Y101.418 E7.24447
G1 X77.244 Y100.478 E7.28389
G1 X77.203 Y99.77 E7.31337
G1 X77.191 Y99.171 E7.33828
G1 X77.191 Y80.298 E8.12293
G0 F6000 X77.691 Y80.306
G1 F1200 X77.701 Y79.635 E8.15083
G1 X77.755 Y78.709 E8.18939
G1 X77.888 Y77.792 E8.22792
G1 X78.1 Y76.889 E8.26648
G1 X78.389 Y76.008 E8.30503
G1 X78.753 Y75.155 E8.34358
G1 X79.189 Y74.337 E8.38212
G1 X79.693 Y73.559 E8.42066
G1 X80.263 Y72.828 E8.4592
G1 X80.894 Y72.148 E8.49777
G1 X81.581 Y71.526 E8.5363
G1 X82.319 Y70.965 E8.57484
G1 X83.103 Y70.469 E8.61341
G1 X83.926 Y70.043 E8.65194
G1 X84.783 Y69.69 E8.69047
G1 X85.668 Y69.411 E8.72905
G1 X86.573 Y69.21 E8.76759
G1 X87.492 Y69.088 E8.80614
G1 X88.145 Y69.049 E8.83333
G1 X88.77 Y69.036 E8.85932
G1 X108.909 Y69.043 E9.69661
G1 X109.574 Y69.052 E9.72426
G1 X110.5 Y69.104 E9.76281
G1 X111.418 Y69.237 E9.80138
G1 X112.321 Y69.447 E9.83992
G1 X113.202 Y69.735 E9.87846
G1 X114.055 Y70.097 E9.91698
G1 X114.874 Y70.532 E9.95554
G1 X115.653 Y71.036 E9.99411
G1 X116.385 Y71.605 E10.03266
G1 X117.065 Y72.235 E10.0712
G1 X117.689 Y72.921 E10.10975
G1 X118.251 Y73.658 E10.14829
G1 X118.747 Y74.441 E10.18682
G1 X119.175 Y75.264 E10.22539
G1 X119.529 Y76.12 E10.2639
G1 X119.809 Y77.004 E10.30245
G1 X120.011 Y77.909 E10.341
G1 X120.135 Y78.828 E10.37956
G1 X120.173 Y79.448 E10.40538
G1 X120.19 Y80.136 E10.43399
G1 X120.19 Y83.211 E10.56184
G1 X120.227 Y85.83 E10.67073
G1 X120.333 Y88.327 E10.77464
G1 X120.511 Y90.841 E10.87942
G1 X120.763 Y93.382 E10.98558
G1 X121.08 Y95.858 E11.08936
G1 X121.473 Y98.361 E11.1947
G1 X122.086 Y101.603 E11.33188
G1 X122.219 Y102.52 E11.3704
G1 X122.27 Y103.855 E11.42594
G1 X122.258 Y104.358 E11.44686
G1 X122.196 Y105.283 E11.4854
G1 X122.054 Y106.2 E11.52398
G1 X121.865 Y106.994 E11.55792
G1 X121.589 Y107.982 E11.60057
G1 X121.363 Y108.751 E11.63389
G1 X120.711 Y111.22 E11.74006
G1 X120.136 Y113.68 E11.84509
G1 X119.636 Y116.131 E11.94909
G1 X119.198 Y118.639 E12.05494
G1 X118.834 Y121.129 E12.15956
G1 X118.535 Y123.681 E12.26638
G1 X118.369 Y125.361 E12.33657
G1 X118.238 Y126.279 E12.37512
G1 X118.029 Y127.182 E12.41366
G1 X117.742 Y128.064 E12.45222
G1 X117.381 Y128.918 E12.49077
G1 X116.948 Y129.737 E12.52928
G1 X116.445 Y130.516 E12.56783
G1 X115.877 Y131.249 E12.60639
G1 X115.248 Y131.93 E12.64493
G1 X114.563 Y132.555 E12.68348
G1 X113.827 Y133.118 E12.72201
G1 X113.044 Y133.616 E12.76059
G1 X112.222 Y134.044 E12.79912
G1 X111.366 Y134.4 E12.83766
G1 X110.482 Y134.681 E12.87622
G1 X109.578 Y134.885 E12.91475
G1 X108.659 Y135.009 E12.95331
G1 X107.985 Y135.05 E12.98138
G1 X107.329 Y135.065 E13.00866
G1 X94.773 Y135.064 E13.53068
G1 X94.075 Y135.055 E13.5597
G1 X93.15 Y135.003 E13.59822
G1 X92.232 Y134.872 E13.63677
G1 X91.329 Y134.662 E13.67532
G1 X90.447 Y134.375 E13.71388
G1 X89.594 Y134.012 E13.75242
G1 X88.775 Y133.578 E13.79095
G1 X87.996 Y133.075 E13.82951
G1 X87.263 Y132.507 E13.86806
G1 X86.583 Y131.877 E13.9066
G1 X85.959 Y131.192 E13.94512
G1 X85.396 Y130.455 E13.98368
G1 X84.899 Y129.672 E14.02224
G1 X84.471 Y128.849 E14.06081
G1 X84.116 Y127.993 E14.09933
G1 X83.836 Y127.109 E14.13788
G1 X83.633 Y126.205 E14.1764
G1 X83.533 Y125.526 E14.20494
G1 X83.382 Y124.208 E14.26009
G1 X83.057 Y121.681 E14.36602
G1 X82.659 Y119.157 E14.47225
G1 X82.198 Y116.689 E14.57663
G1 X81.67 Y114.239 E14.68083
G1 X81.069 Y111.797 E14.78539
G1 X80.39 Y109.345 E14.89117
G1 X79.644 Y106.912 E14.99697
G1 X78.826 Y104.494 E15.10309
G1 X78.323 Y103.083 E15.16537
G1 X78.05 Y102.197 E15.20392
G1 X77.854 Y101.29 E15.24249
G1 X77.736 Y100.371 E15.28102
G1 X77.703 Y99.757 E15.30658
G1 X77.691 Y99.171 E15.33095
G1 X77.691 Y80.306 E16.11526
G0 F6000 X78.191 Y80.313
G1 F1200 X78.201 Y79.642 E16.14316
G1 X78.255 Y78.739 E16.18077
G1 X78.388 Y77.843 E16.21843
G1 X78.599 Y76.963 E16.25606
G1 X78.887 Y76.105 E16.29368
G1 X79.25 Y75.275 E16.33135
G1 X79.685 Y74.481 E16.36899
G1 X80.188 Y73.728 E16.40663
G1 X80.756 Y73.023 E16.44427
G1 X81.383 Y72.371 E16.48188
G1 X82.066 Y71.776 E16.51954
G1 X82.798 Y71.244 E16.55716
G1 X83.575 Y70.779 E16.59481
G1 X84.39 Y70.384 E16.63246
G1 X85.236 Y70.062 E16.6701
G1 X86.107 Y69.816 E16.70773
G1 X86.997 Y69.649 E16.74537
G1 X88.159 Y69.549 E16.79386
G1 X88.77 Y69.536 E16.81927
G1 X108.903 Y69.543 E17.6563
G1 X109.568 Y69.552 E17.68395
G1 X110.472 Y69.604 E17.7216
G1 X111.367 Y69.736 E17.75921
G1 X112.248 Y69.946 E17.79687
G1 X113.106 Y70.233 E17.83448
G1 X113.936 Y70.595 E17.87213
G1 X114.731 Y71.029 E17.90978
G1 X115.484 Y71.531 E17.94741
G1 X116.19 Y72.097 E17.98503
G1 X116.844 Y72.724 E18.0227
G1 X117.439 Y73.406 E18.06032
G1 X117.972 Y74.138 E18.09797
G1 X118.439 Y74.914 E18.13562
G1 X118.835 Y75.728 E18.17326
G1 X119.158 Y76.573 E18.21087
G1 X119.404 Y77.445 E18.24854
G1 X119.573 Y78.334 E18.28616
G1 X119.673 Y79.465 E18.33336
G1 X119.69 Y80.136 E18.36127
G1 X119.69 Y83.218 E18.48941
G1 X119.727 Y85.823 E18.59772
G1 X119.836 Y88.386 E18.70437
G1 X120.013 Y90.887 E18.80861
G1 X120.265 Y93.429 E18.91481
G1 X120.585 Y95.929 E19.0196
G1 X120.978 Y98.428 E19.12477
G1 X121.595 Y101.695 E19.263
G1 X121.723 Y102.592 E19.30067
G1 X121.77 Y103.843 E19.35272
G1 X121.758 Y104.346 E19.37364
G1 X121.697 Y105.25 E19.41131
G1 X121.556 Y106.144 E19.44893
G1 X121.383 Y106.86 E19.47956
G1 X121.067 Y107.988 E19.52826
G1 X120.871 Y108.651 E19.557
G1 X120.229 Y111.083 E19.66158
G1 X119.648 Y113.571 E19.7678
G1 X119.142 Y116.05 E19.87299
G1 X118.705 Y118.551 E19.97855
G1 X118.342 Y121.035 E20.08292
G1 X118.032 Y123.684 E20.1938
G1 X117.871 Y125.312 E20.26181
G1 X117.743 Y126.208 E20.29944
G1 X117.536 Y127.089 E20.33707
G1 X117.251 Y127.949 E20.37474
G1 X116.893 Y128.78 E20.41235
G1 X116.462 Y129.576 E20.44999
G1 X115.962 Y130.331 E20.48764
G1 X115.398 Y131.039 E20.52527
G1 X114.774 Y131.695 E20.56291
G1 X114.094 Y132.293 E20.60056
G1 X113.364 Y132.828 E20.63819
G1 X112.59 Y133.298 E20.67583
G1 X111.777 Y133.697 E20.71349
G1 X110.933 Y134.022 E20.75109
G1 X110.062 Y134.272 E20.78876
G1 X109.174 Y134.444 E20.82637
G1 X107.971 Y134.551 E20.87658
G1 X107.329 Y134.565 E20.90328
G1 X94.78 Y134.564 E21.425
G1 X94.082 Y134.555 E21.45402
G1 X93.178 Y134.504 E21.49167
G1 X92.282 Y134.372 E21.52932
G1 X91.402 Y134.163 E21.56693
G1 X90.543 Y133.876 E21.60458
G1 X89.713 Y133.515 E21.64221
G1 X88.918 Y133.082 E21.67985
G1 X88.164 Y132.58 E21.71751
G1 X87.458 Y132.014 E21.75513
G1 X86.804 Y131.388 E21.79276
G1 X86.208 Y130.706 E21.83042
G1 X85.674 Y129.975 E21.86806
G1 X85.207 Y129.199 E21.90571
G1 X84.811 Y128.385 E21.94335
G1 X84.487 Y127.54 E21.98097
G1 X84.24 Y126.669 E22.01861
G1 X84.03 Y125.469 E22.06926
G1 X83.88 Y124.158 E22.12412
G1 X83.553 Y121.616 E22.23067
G1 X83.154 Y119.086 E22.33716
G1 X82.689 Y116.596 E22.44247
G1 X82.156 Y114.127 E22.54749
G1 X81.547 Y111.649 E22.65357
G1 X80.87 Y109.202 E22.75913
G1 X80.128 Y106.783 E22.86433
G1 X79.283 Y104.286 E22.97392
G1 X78.794 Y102.915 E23.03444
G1 X78.528 Y102.049 E23.0721
G1 X78.339 Y101.164 E23.10973
G1 X78.23 Y100.265 E23.14738
G1 X78.203 Y99.744 E23.16907
G1 X78.191 Y99.171 E23.19289
G1 X78.191 Y80.313 E23.97692
G1 F2700 E18.97692
G0 F6000 X87.787 Y96.703
G0 X96.951 Y99.393
G0 X96.951 Y99.808
G1 F2700 E23.97692
G1 F1200 X105.69 Y99.816 E24.34024
G1 X105.69 Y101.189 E24.39733
G1 X105.379 Y101.443 E24.41402
G1 X105.026 Y101.796 E24.43478
G1 X104.669 Y102.211 E24.45754
G1 X104.375 Y102.673 E24.4803
G1 X104.152 Y103.172 E24.50303
G1 X104.004 Y103.699 E24.52578
G1 X103.928 Y104.452 E24.55725
G1 X103.935 Y110.419 E24.80533
G1 X103.931 Y120.565 E25.22715
G1 X97.953 Y120.565 E25.47569
G1 X97.951 Y104.453 E26.14555
G1 X97.912 Y103.907 E26.1683
G1 X97.793 Y103.372 E26.19109
G1 X97.599 Y102.861 E26.21381
G1 X97.331 Y102.383 E26.2366
G1 X97.055 Y102.045 E26.25474
G1 X97.056 Y101.844 E26.2631
G1 X96.974 Y101.05 E26.29628
G1 X96.953 Y100.952 E26.30045
G1 X96.951 Y99.808 E26.34801
G0 F6000 X96.407 Y99.308
G1 F1200 X106.19 Y99.316 E26.75474
G1 X106.19 Y101.407 E26.84167
G1 X105.733 Y101.797 E26.86665
G1 X105.38 Y102.15 E26.88741
G1 X105.049 Y102.537 E26.90858
G1 X104.783 Y102.972 E26.92978
G1 X104.588 Y103.442 E26.95093
G1 X104.468 Y103.938 E26.97215
G1 X104.428 Y104.452 E26.99358
G1 X104.435 Y110.419 E27.24166
G1 X104.431 Y121.065 E27.68427
G1 X97.454 Y121.065 E27.97434
G1 X97.451 Y104.452 E28.66503
G1 X97.412 Y103.944 E28.68621
G1 X97.293 Y103.448 E28.70742
G1 X97.099 Y102.977 E28.7286
G1 X96.834 Y102.542 E28.74977
G1 X96.555 Y102.215 E28.76765
G1 X96.556 Y101.842 E28.78315
G1 X96.485 Y101.154 E28.81191
G1 X96.453 Y101.004 E28.81829
G1 X96.453 Y99.84 E28.86668
G1 X96.407 Y99.308 E28.88888
G0 F6000 X95.764 Y98.807
G1 F1200 X106.69 Y98.815 E29.34313
G1 X106.69 Y101.694 E29.46282
G1 X106.297 Y101.961 E29.48258
G1 X106.086 Y102.15 E29.49435
G1 X105.733 Y102.503 E29.51511
G1 X105.432 Y102.862 E29.53459
G1 X105.195 Y103.266 E29.55406
G1 X105.03 Y103.705 E29.57356
G1 X104.943 Y104.165 E29.59302
G1 X104.928 Y104.451 E29.60493
G1 X104.935 Y110.419 E29.85305
G1 X104.931 Y121.565 E30.31645
G1 X96.954 Y121.565 E30.64809
G1 X96.951 Y104.451 E31.35961
G1 X96.912 Y103.984 E31.37909
G1 X96.794 Y103.531 E31.39855
G1 X96.6 Y103.104 E31.41805
G1 X96.337 Y102.716 E31.43754
G1 X96.054 Y102.411 E31.45484
G1 X96.056 Y101.841 E31.47854
G1 X95.996 Y101.258 E31.5029
G1 X95.953 Y101.056 E31.51149
G1 X95.953 Y99.84 E31.56205
G1 X95.913 Y99.373 E31.58153
G1 X95.764 Y98.807 E31.60587
G0 F6000 X94.84 Y98.307
G1 F1200 X107.19 Y98.315 E32.11932
G1 X107.19 Y102.009 E32.2729
G1 X106.825 Y102.196 E32.28995
G1 X106.44 Y102.504 E32.31045
G1 X106.087 Y102.857 E32.3312
G1 X105.817 Y103.184 E32.34883
G1 X105.613 Y103.555 E32.36643
G1 X105.482 Y103.958 E32.38405
G1 X105.428 Y104.451 E32.40467
G1 X105.435 Y110.419 E32.65279
G1 X105.431 Y122.065 E33.13698
G1 X96.454 Y122.065 E33.5102
G1 X96.451 Y104.451 E34.2425
G1 X96.412 Y104.029 E34.26012
G1 X96.294 Y103.622 E34.27774
G1 X96.102 Y103.244 E34.29537
G1 X95.792 Y102.857 E34.31598
G1 X95.554 Y102.619 E34.32997
G1 X95.556 Y101.839 E34.3624
G1 X95.507 Y101.363 E34.3823
G1 X95.453 Y101.11 E34.39305
G1 X95.453 Y99.84 E34.44585
G1 X95.413 Y99.418 E34.46348
G1 X95.295 Y99.011 E34.48109
G1 X95.102 Y98.634 E34.4987
G1 X94.84 Y98.307 E34.51612
G0 F6000 X93.377 Y97.805
G1 F1200 X107.69 Y97.814 E35.11119
G1 X107.69 Y102.375 E35.30081
G1 X107.305 Y102.503 E35.31768
G1 X106.983 Y102.693 E35.33323
G1 X106.794 Y102.858 E35.34366
G1 X106.441 Y103.211 E35.36441
G1 X106.206 Y103.501 E35.37993
G1 X106.039 Y103.835 E35.39545
G1 X105.946 Y104.197 E35.41099
G1 X105.928 Y104.45 E35.42154
G1 X105.935 Y110.419 E35.6697
G1 X105.931 Y122.565 E36.17467
G1 X95.954 Y122.565 E36.58947
G1 X95.951 Y104.45 E37.3426
G1 X95.912 Y104.079 E37.35811
G1 X95.794 Y103.724 E37.37367
G1 X95.604 Y103.402 E37.38921
G1 X95.438 Y103.211 E37.39973
G1 X95.053 Y102.832 E37.42219
G1 X95.056 Y101.837 E37.46356
G1 X95.018 Y101.467 E37.47902
G1 X94.953 Y101.162 E37.49199
G1 X94.953 Y99.84 E37.54695
G1 X94.913 Y99.469 E37.56246
G1 X94.795 Y99.114 E37.57802
G1 X94.605 Y98.792 E37.59356
G1 X94.44 Y98.603 E37.60399
G1 X94.087 Y98.25 E37.62475
G1 X93.797 Y98.015 E37.64027
G1 X93.377 Y97.805 E37.65979
G1 F2700 E32.65979
G0 F6000 X89.69 Y97.302
G1 F2700 E37.65979
G1 F1200 X108.19 Y97.314 E38.42893
G1 X108.19 Y102.825 E38.65805
G1 X107.718 Y102.885 E38.67783
G1 X107.425 Y103.002 E38.69095
G1 X107.147 Y103.211 E38.70541
G1 X106.794 Y103.564 E38.72616
G1 X106.601 Y103.814 E38.73929
G1 X106.476 Y104.104 E38.75242
